X:11
T:Bourre carre de la Chtre
R:Bourre  2 temps
O:France
A:Berry
C:Trad.
M:2/4
L:1/16
K:G
"Intro"d|B3G B2d2|c3B A2B2|c3d e2f2|g6d2|:
G3A B2c2|d4d4|e3f g2e2|d3c B2A2|G3A B2c2|d4d4|e3f g2e2|d6d2:|:
B3G B2d2|cdcB A2B2|c3B c2e2|dedc B2d2|B3G B2d2|cdcB A2B2|c3d e2f2|g6d2 :|]
%%footer $D   Galouvielle-MBe 2005 \nBourre  2 temps France
